X: 509
T: the Black Haired Girl   #2
R: reel, air
%S: s:3 b:13(5+4+4)
B: O'Neill's 1850 #509
O: F.O'Neill
Z: Dave Wooldridge
N: Compacted via repeat and multiple endings [JC]
Q: "Moderate"
M: 2/4
L: 1/8
K: G
D \
|: G2 (GE | G2) AB | c2 (d/c/)(B/A/) |[1 (c/B/)(A/G/) E/ z/z :|[2 (B2 B) :|
|| A \
| (G>A) .B.c | d>d (ef) | g>f (a/g/)(f/e/) | d>B (e/d/)(c/B/) ||
| c>A (d/c/)(B/A/) | (G/D/E/F/) (~GG/B/) | {B}(A/G/A/B/) (.G .G) | (G2 HG) |]
